X:79
T:Ashleyâ€™s Hornpipe. JBs.079
S:Jas.Blackshaw MS, 1837, N.Shropshire
A:North Shropshire
Z:T. Weatherall 2006
M:4/4
L:1/8
Q:1/2=90
R:.Hornpipe
K:C
G2|cdef gfed|câ€™bcâ€™g g2f2|egec fafd|egec BdBG|
cdef gâ€*â€fed|câ€™bcâ€™g g2f2|egec fafd|c2c2c2:|
|:a2|gabcâ€™ bdâ€™bg|câ€™eâ€™câ€™a bdâ€™bg|gabcâ€™ bdâ€™bg|egec BdBG|
cdef gfed|câ€™bcâ€™a g2f2|egec fafd|c2c2c2:|

